X: 1
T: The Rambling Pitchfork
T: 8 x 32R 3C
P: In and Out and Roundabout
C: Peter Elmes
C: Arr. T. Traub 7-30-03
R: Reel
K: G
M: 2/4
L: 1/8
|: G/A/|"G"Bd d/c/B/c/|"G"dg gf/e/|"G"d/B/G/A/ B/d/B/G/|"D"cA AG/A/|"G"Bd "D"d/c/B/c/|"G"dg "Em"gd/c/|"G"B/G/A/B/ "D"c/B/A/c/|"G"BG G :|
|: B/d/|"G"gd B/c/d/B/|"C"ce ed/c/|"G"B/G/g/d/ "Em"B/d/e/d/|"D"cA AB/d/|"G"g/d/^c/d/ e/d/c/d/|"C"eg ga/g/|"D"f/d/f/a/ b/a/g/f/|"G"gb g :|
